X:85
T:Lady Berkeley's Whim. JJo5.085
Q:1/2=80
T:Lord Holderness' Rant,aka. JJo5.085
M:C
L:1/8
B:J.Johnson Choice Collection Vol 5, 1750
Z:vmp.Mike Hicken 2015 www.village-music-project.org.uk
K:Bb
D2(F<B) (d<f)(d<B)|c2 (e<c) G<cA<F|B2(F<_A) G<ED<C|D<Fd<c B2B,2 ?
|: d2 (d<B) d2 (d<B)|(d<B)(f<d) B2d2|c2 (c<G) c2 (c<G)|A<BF<B D2B,2 ?
|:d2 (f//e//d3/) (f//e//)d3/ (f//e//)d3/|fbag f2d2|e2 (g<e) f<de<c| B<gf>e d2B2 ?
B2 (D<B,) B2 (D<B,) |(E<c)(B<A) B2F2|B2 (F<D) B2 (F<D)|E2F2 [B,4F4B4] |]
W:
W:Last Strain but once.

